svgs/sharp-light/pump.svg

<svg xmlns="http://www.w3.org/2000/svg" viewBox="0 0 640 512"><!--! Font Awesome Pro 6.6.0 by @fontawesome - https://fontawesome.com License - https://fontawesome.com/license (Commercial License) Copyright 2024 Fonticons, Inc. --><path d="M76.9 0l-16 0 0 32 16 0L96 32l0 176-64 0 0-16 0-16L0 176l0 16 0 32L0 384l0 32 0 16 32 0 0-16 0-16 288 0 0-32L32 368l0-128 80 0 16 0 0-16 0-192 128 0 0 192 0 16 16 0 48 0 0-32-32 0 0-176 16 0 16 0 0-32L304 0 272 0 112 0 76.9 0zM384 177.1L457.7 128 608 128l0 352-150.3 0L384 430.9l0-253.7zM448 96l-96 64 0 288 96 64 160 0 32 0 0-32 0-352 0-32-32 0L448 96zm0 112l0 32 16 0 80 0 16 0 0-32-16 0-80 0-16 0zm0 80l0 32 16 0 80 0 16 0 0-32-16 0-80 0-16 0zm0 80l0 32 16 0 80 0 16 0 0-32-16 0-80 0-16 0z"/></svg>

<svg xmlns="http://www.w3.org/2000/svg" viewBox="0 0 640 512"><!--! Font Awesome Pro 6.5.2 by @fontawesome - https://fontawesome.com License - https://fontawesome.com/license (Commercial License) Copyright 2024 Fonticons, Inc. --><path d="M76.9 0h-16V32h16H96V208H32V192 176H0v16 32V384v32 16H32V416 400H320V368H32V240h80 16V224 32H256V224v16h16 48V208H288V32h16 16V0H304 272 112 76.9zM384 177.1L457.7 128H608V480H457.7L384 430.9V177.1zM448 96l-96 64V448l96 64H608h32V480 128 96H608 448zm0 112v32h16 80 16V208H544 464 448zm0 80v32h16 80 16V288H544 464 448zm0 80v32h16 80 16V368H544 464 448z"/></svg>
